X:1
T:I Have Christ
T:I Have Christ
T:Letha H. Sims 
T:Mary Jane Deck Walker (1816-1878)
T:Public Domain Courtesy of the Cyber Hymnal™
T:Public Domain Courtesy of the Cyber Hymnal™
C:Letha H. Sims
Z:Public Domain
Z:Courtesy of the Cyber Hymnal™
%%score ( 1 2 ) 3
L:1/8
Q:1/4=85
M:3/4
K:F
V:1 treble 
V:2 treble 
V:3 bass 
V:1
 C>F | [FA]3 [FA] [Ac]>[FA] | [Ec] [GB]3 [FA]>[EG] | [DF]3 [DF] D>[DF] | [EG]4 E>[EG] | %5
w: 1.~In the|heart of Lon- don|ci- ty, ’Mid the|dwell- ings of the|poor, These bright|
w: 2.~By a|sick and dy- ing|wo- man, Stretched up-|on a gar- ret|floor; Hav- ing|
w: 3.~He who|heard them ran to|fetch her Some- thing|from the world’s great|store; It was|
w: 4.~But her|words will live for|ev- er; I re-|peat them o’er and|o’er; God de-|
w: 5.~Oh! my|dear, my fel- low-|sin- ners, Young and|old, and rich and|poor, Can you|
w: 6.~Look a-|way from earth’s at-|trac- tions; All earth’s|joys will soon be|o’er: Rest not|
 [GB]3 [GB] [Bd]>[GB] | [Fd] [Ac]3 [Ac][FA] | [D=B]3 [DB] [Ec][Fd] | [Ec]4"^riten." [EB][DE] | %9
w: gold- en words were|ut- tered, “I have|Christ— what want I|more?” “I have|
w: not one earth- ly|com- fort, “I have|Christ— what want I|more?” “I have|
w: need- less— died she|say- ing, “I have|Christ— what want I|more?” “I have|
w: lights to hear me|say- ing, “I have|Christ— what want I|more?” “I have|
w: say, with deep thanks-|giv- ing, “I have|Christ— what want I|more?” “I have|
w: till your heart ex-|claim- eth, “I have|Christ— what want I|more?” “I have|
 [^CA]3 [B,G] [B,D]E | [A,F]4 ||"^Refrain" [Ac][Gc] | [Fc]3 [Ac] [GB][FA] | [EG]4 [GB][FB] | %14
w: Christ— what want I|more?”||||
w: Christ— what want I|more?”||||
w: Christ— what want I|more?”|“I have|Christ! what want I|more?” “I have|
w: Christ— what want I|more?”||||
w: Christ— what want I|more?”||||
w: Christ— what want I|more?”||||
 [EB]3 [Ed] [Ac][GB] | [FA]4"^riten." [Cc][CF] | !fermata![CE]4 [GB]2 | [FA]4 [EG]2 | [CF]6 |] %19
w: |||||
w: |||||
w: Christ! what want I|more?” “I have|Christ! what|want I|more?”|
w: |||||
w: |||||
w: |||||
V:2
 C>F | x6 | x6 | x4 D3/2 x/ | x4 E3/2 x/ | x6 | x6 | x6 | x6 | x5 (=C/B,/) | x4 || x2 | x6 | x6 | %14
 x6 | x6 | x6 | x6 | x6 |] %19
V:3
 z2 | [F,C]3 [A,C]3 | [G,C]4 z2 | [D,B,]3 [D,=B,]3 | [C,G,]4 z2 | [C,G,]4 z2 | [F,,F,]4 z2 | %7
w: |~ ~|~|~ ~|~|~|~|
 [G,,G,]4 z2 | [C,,C,]4 z2 | [A,,A,]3 B,,2 G,, | [F,,F,]4 || z2 | [F,A,][G,B,] [A,C] z3 | %13
w: ~|~|~ ~ ~|~||I have Christ!|
 [C,C][C,C] [E,C][G,C] z2 | [C,G,][D,G,] [E,G,] z3 | [F,C][F,C] [F,C][F,C] z2 | %16
w: What want I more?|I have Christ!|What want I more?|
 [G,B,][G,B,] !fermata![G,B,]2 [B,,D]2 | [C,C]4 [C,B,]2 | [F,A,]6 |] %19
w: I have Christ! *|||

